remix/Document/file-2-line.svg

<svg viewBox="0 0 24 24" fill="currentColor" xmlns="http://www.w3.org/2000/svg"><path d="M3 8L9.00319 2H19.9978C20.5513 2 21 2.45531 21 2.9918V21.0082C21 21.556 20.5551 22 20.0066 22H3.9934C3.44476 22 3 21.5501 3 20.9932V8ZM10 4V9H5V20H19V4H10Z"/></svg>

<svg viewBox="0 0 24 24" xmlns="http://www.w3.org/2000/svg"><path fill="none" d="M0 0h24v24H0Z"/><path d="M3 8l6.003-6h10.99c.55 0 1 .45 1 .99V21h0c-.01.54-.45.99-1 .99H3.97v0c-.56-.01-1-.46-1-1.01 0-.01 0-.01 0-.01v-13Zm7-4v5H5v11h14V4h-9Z"/></svg>
